GWA/img/icons/xing.svg

<svg width="36" height="36" viewBox="0 0 36 36" fill="none" xmlns="http://www.w3.org/2000/svg">
<path d="M28.5 0H7.5C3.3585 0 0 3.3585 0 7.5V28.5C0 32.6415 3.3585 36 7.5 36H28.5C32.643 36 36 32.6415 36 28.5V7.5C36 3.3585 32.643 0 28.5 0ZM7.3725 22.5L11.4885 15.2625L8.7195 10.5195H13.6575L16.4025 15.2475L12.2865 22.5H7.3725ZM20.5575 20.3325L25.8285 30H20.9505L15.6255 20.3325L23.6955 6H28.629L20.5575 20.3325Z" fill="#D4B982"/>
</svg>

<svg width="36" height="36" fill="none" xmlns="http://www.w3.org/2000/svg"><path d="M28.5 0h-21A7.5 7.5 0 000 7.5v21A7.5 7.5 0 007.5 36h21a7.5 7.5 0 007.5-7.5v-21A7.5 7.5 0 0028.5 0zM7.372 22.5l4.117-7.238-2.77-4.742h4.939l2.745 4.728-4.116 7.252H7.372zm13.186-2.168L25.828 30h-4.877l-5.325-9.668L23.696 6h4.933l-8.072 14.332z" fill="#D4B982"/></svg>
